images/discount.svg

<svg width="52" height="35" viewBox="0 0 52 35" fill="none" xmlns="http://www.w3.org/2000/svg">
<path d="M27.9362 0L21.4019 12.5494L18.386 13.095L11.3491 0H27.9362Z" fill="#99D4FF"/>
<circle cx="41.4375" cy="23.7964" r="9.8125" fill="#99D4FF" stroke="#5181B8" stroke-width="1.5"/>
<path d="M34.4719 5.72021L34.9649 5.32592V11.1091C34.9649 11.4575 35.2473 11.7399 35.5957 11.7399C35.944 11.7399 36.2265 11.4575 36.2265 11.1091V5.32592L36.7194 5.72021C36.8357 5.81324 36.9749 5.85849 37.113 5.85849C37.2981 5.85849 37.4814 5.77749 37.606 5.62181C37.8237 5.34973 37.7795 4.95283 37.5075 4.73516L35.9897 3.52092C35.9881 3.51957 35.9862 3.51881 35.9846 3.51747C35.9581 3.49661 35.9301 3.47768 35.9004 3.46128C35.8998 3.46103 35.8993 3.46061 35.8987 3.46027C35.8702 3.44463 35.8402 3.43176 35.8092 3.42058C35.805 3.41906 35.8008 3.41738 35.7966 3.41595C35.7674 3.40619 35.7374 3.39854 35.7065 3.39307C35.7011 3.39215 35.6957 3.39139 35.6903 3.39063C35.6593 3.38592 35.628 3.38281 35.5958 3.38281C35.5635 3.38281 35.5322 3.38601 35.5012 3.39063C35.4958 3.39148 35.4904 3.39215 35.485 3.39307C35.4541 3.39854 35.424 3.40619 35.3949 3.41595C35.3906 3.41738 35.3865 3.41906 35.3823 3.42058C35.3513 3.43168 35.3213 3.44463 35.2928 3.46027C35.2922 3.46061 35.2917 3.46103 35.2911 3.46128C35.2614 3.47768 35.2334 3.49669 35.2069 3.51747C35.2053 3.51881 35.2034 3.51957 35.2018 3.52092L33.684 4.73516C33.412 4.95283 33.3679 5.34973 33.5855 5.62181C33.8029 5.89364 34.1998 5.9378 34.4719 5.72021Z" fill="#5181B8"/>
<path d="M42.4026 2.3374L42.8955 1.94311V7.72627C42.8955 8.07472 43.178 8.35707 43.5263 8.35707C43.8747 8.35707 44.1571 8.07472 44.1571 7.72627V1.94311L44.6501 2.3374C44.7664 2.43042 44.9055 2.47567 45.0437 2.47567C45.2287 2.47567 45.4121 2.39468 45.5366 2.239C45.7543 1.96691 45.7102 1.57001 45.4382 1.35235L43.9204 0.138103C43.9188 0.136758 43.9168 0.136001 43.9152 0.134655C43.8888 0.113796 43.8607 0.0948719 43.8311 0.0784712C43.8305 0.0782189 43.83 0.0777989 43.8294 0.0774625C43.8009 0.0618187 43.7708 0.0489504 43.7399 0.0377642C43.7357 0.0362503 43.7315 0.0345681 43.7273 0.0331383C43.6981 0.023382 43.6681 0.015728 43.6372 0.0102611C43.6317 0.00933595 43.6263 0.00857905 43.621 0.00782209C43.59 0.00311213 43.5586 0 43.5264 0C43.4942 0 43.4628 0.00319624 43.4319 0.00782209C43.4264 0.00866316 43.421 0.00933595 43.4157 0.0102611C43.3848 0.015728 43.3547 0.023382 43.3256 0.0331383C43.3213 0.0345681 43.3172 0.0362503 43.313 0.0377642C43.282 0.0488663 43.252 0.0618187 43.2235 0.0774625C43.2229 0.0777989 43.2224 0.0782189 43.2218 0.0784712C43.1921 0.0948719 43.1641 0.113881 43.1376 0.134655C43.1359 0.136001 43.1341 0.136758 43.1325 0.138103L41.6147 1.35235C41.3427 1.57001 41.2985 1.96691 41.5162 2.239C41.7336 2.51083 42.1305 2.55499 42.4026 2.3374Z" fill="#5181B8"/>
<path d="M47.9743 20.3276C47.8073 20.0219 47.4241 19.9095 47.1184 20.0765C46.8126 20.2435 46.7001 20.6267 46.8671 20.9325C47.3538 21.8236 47.6111 22.8351 47.6111 23.8578C47.6111 27.2281 44.8692 29.97 41.4989 29.97C38.1286 29.97 35.3866 27.2281 35.3866 23.8578C35.3866 20.4874 38.1286 17.7455 41.4989 17.7455C42.9269 17.7455 44.3162 18.2483 45.4108 19.1611C45.6784 19.3842 46.0762 19.3481 46.2992 19.0807C46.5224 18.8131 46.4864 18.4153 46.2188 18.1923C44.8979 17.0906 43.2216 16.4839 41.4989 16.4839C37.4329 16.4839 34.125 19.7918 34.125 23.8578C34.125 27.9237 37.4329 31.2316 41.4989 31.2316C45.5648 31.2316 48.8727 27.9237 48.8727 23.8578C48.8727 22.6244 48.5621 21.4037 47.9743 20.3276Z" fill="#5181B8"/>
<path d="M41.4987 28.728C41.8471 28.728 42.1295 28.4456 42.1295 28.0972V27.4389H42.3359C43.4971 27.4389 44.4418 26.4942 44.4418 25.333C44.4418 24.1718 43.4971 23.2272 42.3359 23.2272H40.6615C40.196 23.2272 39.8173 22.8485 39.8173 22.383C39.8173 21.9174 40.196 21.5387 40.6615 21.5387H43.1168C43.4651 21.5387 43.7476 21.2564 43.7476 20.9079C43.7476 20.5595 43.4651 20.2771 43.1168 20.2771H42.1295V19.6188C42.1295 19.2704 41.8471 18.988 41.4987 18.988C41.1503 18.988 40.8679 19.2704 40.8679 19.6188V20.2771H40.6615C39.5003 20.2771 38.5557 21.2218 38.5557 22.383C38.5557 23.5441 39.5003 24.4888 40.6615 24.4888H42.3359C42.8014 24.4888 43.1802 24.8675 43.1802 25.333C43.1802 25.7985 42.8014 26.1773 42.3359 26.1773H39.8807C39.5323 26.1773 39.2499 26.4596 39.2499 26.8081C39.2499 27.1565 39.5323 27.4389 39.8807 27.4389H40.868V28.0972C40.8679 28.4456 41.1503 28.728 41.4987 28.728Z" fill="#5181B8"/>
<path d="M16.25 7.3125H23.5625L31.2028 19.6826C35.3177 26.3448 30.5254 34.9375 22.6949 34.9375H15.6288C8.53778 34.9375 3.99472 27.3919 7.3125 21.125L16.25 7.3125Z" fill="#99D4FF"/>
<circle cx="41.4375" cy="23.7964" r="10.5625" fill="#99D4FF"/>
<path d="M52.0001 23.7964C52.0001 29.6299 47.2711 34.3589 41.4376 34.3589C41.0312 34.4834 41.4377 30.555 41.4376 23.7964C41.4376 17.9629 40.5947 13.234 41.4376 13.2339C47.2711 13.2339 52.0001 17.9629 52.0001 23.7964Z" fill="#8BCDFC"/>
<path d="M34.4719 5.72021L34.9649 5.32592V11.1091C34.9649 11.4575 35.2473 11.7399 35.5957 11.7399C35.944 11.7399 36.2265 11.4575 36.2265 11.1091V5.32592L36.7194 5.72021C36.8357 5.81324 36.9749 5.85849 37.113 5.85849C37.2981 5.85849 37.4814 5.77749 37.606 5.62181C37.8237 5.34973 37.7795 4.95283 37.5075 4.73516L35.9897 3.52092C35.9881 3.51957 35.9862 3.51881 35.9846 3.51747C35.9581 3.49661 35.9301 3.47768 35.9004 3.46128C35.8998 3.46103 35.8993 3.46061 35.8987 3.46027C35.8702 3.44463 35.8402 3.43176 35.8092 3.42058C35.805 3.41906 35.8008 3.41738 35.7966 3.41595C35.7674 3.40619 35.7374 3.39854 35.7065 3.39307C35.7011 3.39215 35.6957 3.39139 35.6903 3.39063C35.6593 3.38592 35.628 3.38281 35.5958 3.38281C35.5635 3.38281 35.5322 3.38601 35.5012 3.39063C35.4958 3.39148 35.4904 3.39215 35.485 3.39307C35.4541 3.39854 35.424 3.40619 35.3949 3.41595C35.3906 3.41738 35.3865 3.41906 35.3823 3.42058C35.3513 3.43168 35.3213 3.44463 35.2928 3.46027C35.2922 3.46061 35.2917 3.46103 35.2911 3.46128C35.2614 3.47768 35.2334 3.49669 35.2069 3.51747C35.2053 3.51881 35.2034 3.51957 35.2018 3.52092L33.684 4.73516C33.412 4.95283 33.3679 5.34973 33.5855 5.62181C33.8029 5.89364 34.1998 5.9378 34.4719 5.72021Z" fill="#318CCA"/>
<path d="M42.4026 2.3374L42.8955 1.94311V7.72627C42.8955 8.07472 43.178 8.35707 43.5263 8.35707C43.8747 8.35707 44.1571 8.07472 44.1571 7.72627V1.94311L44.6501 2.3374C44.7664 2.43042 44.9055 2.47567 45.0437 2.47567C45.2287 2.47567 45.4121 2.39468 45.5366 2.239C45.7543 1.96691 45.7102 1.57001 45.4382 1.35235L43.9204 0.138103C43.9188 0.136758 43.9168 0.136001 43.9152 0.134655C43.8888 0.113796 43.8607 0.0948719 43.8311 0.0784712C43.8305 0.0782189 43.83 0.0777989 43.8294 0.0774625C43.8009 0.0618187 43.7708 0.0489504 43.7399 0.0377642C43.7357 0.0362503 43.7315 0.0345681 43.7273 0.0331383C43.6981 0.023382 43.6681 0.015728 43.6372 0.0102611C43.6317 0.00933595 43.6263 0.00857905 43.621 0.00782209C43.59 0.00311213 43.5586 0 43.5264 0C43.4942 0 43.4628 0.00319624 43.4319 0.00782209C43.4264 0.00866316 43.421 0.00933595 43.4157 0.0102611C43.3848 0.015728 43.3547 0.023382 43.3256 0.0331383C43.3213 0.0345681 43.3172 0.0362503 43.313 0.0377642C43.282 0.0488663 43.252 0.0618187 43.2235 0.0774625C43.2229 0.0777989 43.2224 0.0782189 43.2218 0.0784712C43.1921 0.0948719 43.1641 0.113881 43.1376 0.134655C43.1359 0.136001 43.1341 0.136758 43.1325 0.138103L41.6147 1.35235C41.3427 1.57001 41.2985 1.96691 41.5162 2.239C41.7336 2.51083 42.1305 2.55499 42.4026 2.3374Z" fill="#5181B8"/>
<path d="M47.9743 20.3276C47.8073 20.0219 47.4241 19.9095 47.1184 20.0765C46.8126 20.2435 46.7001 20.6267 46.8671 20.9325C47.3538 21.8236 47.6111 22.8351 47.6111 23.8578C47.6111 27.2281 44.8692 29.97 41.4989 29.97C38.1286 29.97 35.3866 27.2281 35.3866 23.8578C35.3866 20.4874 38.1286 17.7455 41.4989 17.7455C42.9269 17.7455 44.3162 18.2483 45.4108 19.1611C45.6784 19.3842 46.0762 19.3481 46.2992 19.0807C46.5224 18.8131 46.4864 18.4153 46.2188 18.1923C44.8979 17.0906 43.2216 16.4839 41.4989 16.4839C37.4329 16.4839 34.125 19.7918 34.125 23.8578C34.125 27.9237 37.4329 31.2316 41.4989 31.2316C45.5648 31.2316 48.8727 27.9237 48.8727 23.8578C48.8727 22.6244 48.5621 21.4037 47.9743 20.3276Z" fill="#5181B8"/>
<path d="M41.4987 28.728C41.8471 28.728 42.1295 28.4456 42.1295 28.0972V27.4389H42.3359C43.4971 27.4389 44.4418 26.4942 44.4418 25.333C44.4418 24.1718 43.4971 23.2272 42.3359 23.2272H40.6615C40.196 23.2272 39.8173 22.8485 39.8173 22.383C39.8173 21.9174 40.196 21.5387 40.6615 21.5387H43.1168C43.4651 21.5387 43.7476 21.2564 43.7476 20.9079C43.7476 20.5595 43.4651 20.2771 43.1168 20.2771H42.1295V19.6188C42.1295 19.2704 41.8471 18.988 41.4987 18.988C41.1503 18.988 40.8679 19.2704 40.8679 19.6188V20.2771H40.6615C39.5003 20.2771 38.5557 21.2218 38.5557 22.383C38.5557 23.5441 39.5003 24.4888 40.6615 24.4888H42.3359C42.8014 24.4888 43.1802 24.8675 43.1802 25.333C43.1802 25.7985 42.8014 26.1773 42.3359 26.1773H39.8807C39.5323 26.1773 39.2499 26.4596 39.2499 26.8081C39.2499 27.1565 39.5323 27.4389 39.8807 27.4389H40.868V28.0972C40.8679 28.4456 41.1503 28.728 41.4987 28.728Z" fill="#318CCA"/>
<path fill-rule="evenodd" clip-rule="evenodd" d="M20.0791 12.7886L21.4015 12.5494L27.9358 0H20.0791V12.7886Z" fill="#8BCDFC"/>
<path fill-rule="evenodd" clip-rule="evenodd" d="M20.0796 34.937H22.6957C30.5263 34.937 35.3186 26.3443 31.2037 19.6821L23.5634 7.312H20.0796V34.937Z" fill="#8BCDFC"/>
<path d="M20.0786 6.98389H24.4436C24.9258 6.98389 25.3166 7.37475 25.3166 7.8569C25.3166 8.33904 24.9258 8.7299 24.4436 8.7299H20.0786V6.98389Z" fill="#5181B8"/>
<path d="M8.72998 7.8569C8.72998 7.37475 9.12084 6.98389 9.60298 6.98389H20.079V8.7299H9.60298C9.12084 8.7299 8.72998 8.33904 8.72998 7.8569Z" fill="#318CCA"/>
<path d="M10.175 4.01263C10.3433 3.72105 10.7164 3.62149 11.0076 3.7904L18.8081 8.31453L16.4086 8.31453L10.3978 4.84423C10.1066 4.67612 10.0069 4.3038 10.175 4.01263Z" fill="#318CCA"/>
</svg>

<svg width="52" height="35" fill="none" xmlns="http://www.w3.org/2000/svg"><path d="M27.936 0l-6.534 12.55-3.016.545L11.349 0h16.587z" fill="#99D4FF"/><circle cx="41.438" cy="23.796" r="9.813" fill="#99D4FF" stroke="#5181B8" stroke-width="1.5"/><path d="M34.472 5.72l.493-.394v5.783a.63.63 0 101.261 0V5.326l.493.394a.628.628 0 00.887-.098.63.63 0 00-.099-.887L35.99 3.521l-.005-.004a.624.624 0 00-.085-.056H35.9a.629.629 0 00-.09-.04l-.012-.005a.63.63 0 00-.296-.025l-.016.002a.627.627 0 00-.09.023l-.013.005a.631.631 0 00-.175.097c-.002 0-.004.002-.005.003l-1.518 1.214a.63.63 0 00.788.985zM42.403 2.337l.492-.394v5.783a.63.63 0 001.262 0V1.943l.493.394a.628.628 0 00.887-.098.63.63 0 00-.099-.887L43.92.138l-.005-.003a.623.623 0 00-.084-.057h-.002a.634.634 0 00-.09-.04l-.012-.005a.63.63 0 00-.09-.023l-.016-.002a.628.628 0 00-.19 0l-.015.002a.627.627 0 00-.09.023l-.013.005a.62.62 0 00-.09.04h-.001a.632.632 0 00-.084.057l-.005.003-1.518 1.214a.63.63 0 00.788.985zM47.974 20.328a.63.63 0 10-1.107.605c.487.89.744 1.902.744 2.925A6.12 6.12 0 0141.5 29.97a6.12 6.12 0 01-6.112-6.112 6.12 6.12 0 016.112-6.113c1.428 0 2.817.503 3.912 1.416a.63.63 0 00.808-.969 7.382 7.382 0 00-4.72-1.708c-4.066 0-7.374 3.308-7.374 7.374s3.308 7.374 7.374 7.374 7.374-3.308 7.374-7.374c0-1.234-.31-2.454-.899-3.53z" fill="#5181B8"/><path d="M41.499 28.728a.63.63 0 00.63-.63v-.66h.207a2.108 2.108 0 002.106-2.105 2.108 2.108 0 00-2.106-2.106H40.66a.845.845 0 010-1.688h2.456a.63.63 0 100-1.262h-.987v-.658a.63.63 0 10-1.262 0v.658h-.207a2.108 2.108 0 00-2.105 2.106c0 1.161.944 2.106 2.105 2.106h1.675a.845.845 0 010 1.688H39.88a.63.63 0 100 1.262h.987v.658c0 .349.282.631.63.631z" fill="#5181B8"/><path d="M16.25 7.313h7.313l7.64 12.37c4.115 6.662-.678 15.255-8.508 15.255h-7.066c-7.091 0-11.634-7.546-8.316-13.813L16.25 7.312z" fill="#99D4FF"/><circle cx="41.438" cy="23.796" r="10.563" fill="#99D4FF"/><path d="M52 23.796c0 5.834-4.729 10.563-10.562 10.563-.407.124 0-3.804 0-10.563 0-5.833-.843-10.562 0-10.562C47.27 13.234 52 17.963 52 23.796z" fill="#8BCDFC"/><path d="M34.472 5.72l.493-.394v5.783a.63.63 0 101.261 0V5.326l.493.394a.628.628 0 00.887-.098.63.63 0 00-.099-.887L35.99 3.521l-.005-.004a.624.624 0 00-.085-.056H35.9a.629.629 0 00-.09-.04l-.012-.005a.63.63 0 00-.296-.025l-.016.002a.627.627 0 00-.09.023l-.013.005a.631.631 0 00-.175.097c-.002 0-.004.002-.005.003l-1.518 1.214a.63.63 0 00.788.985z" fill="#318CCA"/><path d="M42.403 2.337l.492-.394v5.783a.63.63 0 001.262 0V1.943l.493.394a.628.628 0 00.887-.098.63.63 0 00-.099-.887L43.92.138l-.005-.003a.623.623 0 00-.084-.057h-.002a.634.634 0 00-.09-.04l-.012-.005a.63.63 0 00-.09-.023l-.016-.002a.628.628 0 00-.19 0l-.015.002a.627.627 0 00-.09.023l-.013.005a.62.62 0 00-.09.04h-.001a.632.632 0 00-.084.057l-.005.003-1.518 1.214a.63.63 0 00.788.985zM47.974 20.328a.63.63 0 10-1.107.605c.487.89.744 1.902.744 2.925A6.12 6.12 0 0141.5 29.97a6.12 6.12 0 01-6.112-6.112 6.12 6.12 0 016.112-6.113c1.428 0 2.817.503 3.912 1.416a.63.63 0 00.808-.969 7.382 7.382 0 00-4.72-1.708c-4.066 0-7.374 3.308-7.374 7.374s3.308 7.374 7.374 7.374 7.374-3.308 7.374-7.374c0-1.234-.31-2.454-.899-3.53z" fill="#5181B8"/><path d="M41.499 28.728a.63.63 0 00.63-.63v-.66h.207a2.108 2.108 0 002.106-2.105 2.108 2.108 0 00-2.106-2.106H40.66a.845.845 0 010-1.688h2.456a.63.63 0 100-1.262h-.987v-.658a.63.63 0 10-1.262 0v.658h-.207a2.108 2.108 0 00-2.105 2.106c0 1.161.944 2.106 2.105 2.106h1.675a.845.845 0 010 1.688H39.88a.63.63 0 100 1.262h.987v.658c0 .349.282.631.63.631z" fill="#318CCA"/><path fill-rule="evenodd" clip-rule="evenodd" d="M20.08 12.789l1.322-.24L27.935 0h-7.857v12.789z" fill="#8BCDFC"/><path fill-rule="evenodd" clip-rule="evenodd" d="M20.08 34.937h2.616c7.83 0 12.623-8.593 8.508-15.255l-7.64-12.37H20.08v27.625z" fill="#8BCDFC"/><path d="M20.079 6.984h4.365a.873.873 0 110 1.746h-4.365V6.984z" fill="#5181B8"/><path d="M8.73 7.857c0-.482.39-.873.873-.873h10.476V8.73H9.603a.873.873 0 01-.873-.873z" fill="#318CCA"/><path d="M10.175 4.013a.609.609 0 01.833-.223l7.8 4.525h-2.4l-6.01-3.47a.609.609 0 01-.223-.832z" fill="#318CCA"/></svg>
